X: 1
T: The Telephone Tune
S: G\'erard Lajoie
R: reel
Z: 2012 John Chambers <jc:trillian.mit.edu>
S: printed MS from Debbie Knight
M: 2/4
L: 1/16
K: Amix
cd |\
"A"e3e "(E7)"efed | "A"cABc "D"A2F2 | "A"EAAE "(F#m)"AEAB |\
[1,3 "(Bm)"cABc "E7"B2 :|[2,4 "E7"cecB "A"A2 :|
|: "A7"FG |\
"D"AAFA "D7"d3c | "G"B2GB "Em"e3d | "A7"cAce agec |\
[1,3 "D"defd "A7"A2 :|[2,4 "D"df"A7"ec "D"d2 :|

%%sep 1 1 500
